svgs/light/chart-tree-map.svg

<svg xmlns="http://www.w3.org/2000/svg" viewBox="0 0 512 512"><!--! Font Awesome Pro 6.6.0 by @fontawesome - https://fontawesome.com License - https://fontawesome.com/license (Commercial License) Copyright 2024 Fonticons, Inc. --><path d="M176 64c8.8 0 16 7.2 16 16l0 112c0 8.8-7.2 16-16 16L48 208c-8.8 0-16-7.2-16-16L32 80c0-8.8 7.2-16 16-16l128 0zM48 32C21.5 32 0 53.5 0 80L0 192c0 26.5 21.5 48 48 48l128 0c26.5 0 48-21.5 48-48l0-112c0-26.5-21.5-48-48-48L48 32zM176 304c8.8 0 16 7.2 16 16l0 112c0 8.8-7.2 16-16 16L48 448c-8.8 0-16-7.2-16-16l0-112c0-8.8 7.2-16 16-16l128 0zM48 272c-26.5 0-48 21.5-48 48L0 432c0 26.5 21.5 48 48 48l128 0c26.5 0 48-21.5 48-48l0-112c0-26.5-21.5-48-48-48L48 272zM304 64l160 0c8.8 0 16 7.2 16 16l0 32c0 8.8-7.2 16-16 16l-160 0c-8.8 0-16-7.2-16-16l0-32c0-8.8 7.2-16 16-16zM256 80l0 32c0 26.5 21.5 48 48 48l160 0c26.5 0 48-21.5 48-48l0-32c0-26.5-21.5-48-48-48L304 32c-26.5 0-48 21.5-48 48zM464 224c8.8 0 16 7.2 16 16l0 32c0 8.8-7.2 16-16 16l-160 0c-8.8 0-16-7.2-16-16l0-32c0-8.8 7.2-16 16-16l160 0zM304 192c-26.5 0-48 21.5-48 48l0 32c0 26.5 21.5 48 48 48l160 0c26.5 0 48-21.5 48-48l0-32c0-26.5-21.5-48-48-48l-160 0zm0 192l160 0c8.8 0 16 7.2 16 16l0 32c0 8.8-7.2 16-16 16l-160 0c-8.8 0-16-7.2-16-16l0-32c0-8.8 7.2-16 16-16zm-48 16l0 32c0 26.5 21.5 48 48 48l160 0c26.5 0 48-21.5 48-48l0-32c0-26.5-21.5-48-48-48l-160 0c-26.5 0-48 21.5-48 48z"/></svg>

<svg xmlns="http://www.w3.org/2000/svg" viewBox="0 0 512 512"><!--! Font Awesome Pro 6.4.2 by @fontawesome - https://fontawesome.com License - https://fontawesome.com/license (Commercial License) Copyright 2023 Fonticons, Inc. --><path d="M176 64c8.8 0 16 7.2 16 16V192c0 8.8-7.2 16-16 16H48c-8.8 0-16-7.2-16-16V80c0-8.8 7.2-16 16-16H176zM48 32C21.5 32 0 53.5 0 80V192c0 26.5 21.5 48 48 48H176c26.5 0 48-21.5 48-48V80c0-26.5-21.5-48-48-48H48zM176 304c8.8 0 16 7.2 16 16V432c0 8.8-7.2 16-16 16H48c-8.8 0-16-7.2-16-16V320c0-8.8 7.2-16 16-16H176zM48 272c-26.5 0-48 21.5-48 48V432c0 26.5 21.5 48 48 48H176c26.5 0 48-21.5 48-48V320c0-26.5-21.5-48-48-48H48zM304 64H464c8.8 0 16 7.2 16 16v32c0 8.8-7.2 16-16 16H304c-8.8 0-16-7.2-16-16V80c0-8.8 7.2-16 16-16zM256 80v32c0 26.5 21.5 48 48 48H464c26.5 0 48-21.5 48-48V80c0-26.5-21.5-48-48-48H304c-26.5 0-48 21.5-48 48zM464 224c8.8 0 16 7.2 16 16v32c0 8.8-7.2 16-16 16H304c-8.8 0-16-7.2-16-16V240c0-8.8 7.2-16 16-16H464zM304 192c-26.5 0-48 21.5-48 48v32c0 26.5 21.5 48 48 48H464c26.5 0 48-21.5 48-48V240c0-26.5-21.5-48-48-48H304zm0 192H464c8.8 0 16 7.2 16 16v32c0 8.8-7.2 16-16 16H304c-8.8 0-16-7.2-16-16V400c0-8.8 7.2-16 16-16zm-48 16v32c0 26.5 21.5 48 48 48H464c26.5 0 48-21.5 48-48V400c0-26.5-21.5-48-48-48H304c-26.5 0-48 21.5-48 48z"/></svg>
